assets/svgs/pages/mentoring/staff.svg

<svg viewBox="0 0 94.26 94.39" xmlns="http://www.w3.org/2000/svg"><path d="m76.44 94.39a17.82 17.82 0 1 1 17.82-17.82 17.84 17.84 0 0 1 -17.82 17.82zm0-34.14a16.32 16.32 0 1 0 16.32 16.32 16.34 16.34 0 0 0 -16.32-16.32z" fill="#c4c4c4"/><path d="m76.44 82.36a6 6 0 1 1 6-6 6 6 0 0 1 -6 6zm0-10.51a4.51 4.51 0 1 0 4.5 4.5 4.51 4.51 0 0 0 -4.5-4.5z" fill="#ff7c6c"/><path d="m87.57 90.26a.75.75 0 0 1 -.71-.5 11.08 11.08 0 0 0 -20.85 0 .75.75 0 1 1 -1.41-.51 12.58 12.58 0 0 1 23.67 0 .75.75 0 0 1 -.45 1 .74.74 0 0 1 -.25.01z" fill="#ff7c6c"/><path d="m76.44 94.39a17.82 17.82 0 1 1 17.82-17.82 17.84 17.84 0 0 1 -17.82 17.82zm0-34.14a16.32 16.32 0 1 0 16.32 16.32 16.34 16.34 0 0 0 -16.32-16.32z" fill="#c4c4c4"/><path d="m17.82 94.39a17.82 17.82 0 1 1 17.82-17.82 17.84 17.84 0 0 1 -17.82 17.82zm0-34.14a16.32 16.32 0 1 0 16.32 16.32 16.34 16.34 0 0 0 -16.32-16.32z" fill="#c4c4c4"/><path d="m17.82 82.36a6 6 0 1 1 6-6 6 6 0 0 1 -6 6zm0-10.51a4.51 4.51 0 1 0 4.5 4.5 4.51 4.51 0 0 0 -4.5-4.5z" fill="#ff7c6c"/><path d="m29 90.26a.75.75 0 0 1 -.7-.5 11.08 11.08 0 0 0 -20.85 0 .75.75 0 0 1 -1.45-.51 12.59 12.59 0 0 1 23.68 0 .75.75 0 0 1 -.45 1 .8.8 0 0 1 -.23.01z" fill="#ff7c6c"/><path d="m17.82 94.39a17.82 17.82 0 1 1 17.82-17.82 17.84 17.84 0 0 1 -17.82 17.82zm0-34.14a16.32 16.32 0 1 0 16.32 16.32 16.34 16.34 0 0 0 -16.32-16.32z" fill="#c4c4c4"/><path d="m46.54 35.64a17.82 17.82 0 1 1 17.82-17.82 17.84 17.84 0 0 1 -17.82 17.82zm0-34.14a16.32 16.32 0 1 0 16.32 16.32 16.34 16.34 0 0 0 -16.32-16.32z" fill="#c4c4c4"/><path d="m46.54 23.61a6 6 0 1 1 6-6 6 6 0 0 1 -6 6zm0-10.51a4.51 4.51 0 1 0 4.46 4.5 4.51 4.51 0 0 0 -4.46-4.5z" fill="#ff7c6c"/><path d="m57.67 31.51a.75.75 0 0 1 -.67-.51 11.08 11.08 0 0 0 -20.85 0 .75.75 0 1 1 -1.41-.51 12.59 12.59 0 0 1 23.68 0 .75.75 0 0 1 -.46 1 .74.74 0 0 1 -.29.02z" fill="#ff7c6c"/><path d="m46.54 35.64a17.82 17.82 0 1 1 17.82-17.82 17.84 17.84 0 0 1 -17.82 17.82zm0-34.14a16.32 16.32 0 1 0 16.32 16.32 16.34 16.34 0 0 0 -16.32-16.32z" fill="#c4c4c4"/><g fill="#ff7c6c"><path d="m56.42 64a.73.73 0 0 1 -.53-.22l-9.89-9.85a.75.75 0 0 1 1.06-1.06l9.94 9.88a.75.75 0 0 1 0 1.06.74.74 0 0 1 -.58.19z"/><path d="m36.66 64a.74.74 0 0 1 -.53-.22.75.75 0 0 1 0-1.06l9.66-9.66v-11.89a.75.75 0 0 1 1.5 0v12.54l-10.1 10.1a.74.74 0 0 1 -.53.19z"/></g></svg>

<svg id="Layer_1" data-name="Layer 1" xmlns="http://www.w3.org/2000/svg" viewBox="0 0 94.26 94.39"><defs><style>.cls-1{fill:#c4c4c4;}.cls-2{fill:#ff7c6c;}</style></defs><path class="cls-1" d="M76.44,94.39A17.82,17.82,0,1,1,94.26,76.57,17.84,17.84,0,0,1,76.44,94.39Zm0-34.14A16.32,16.32,0,1,0,92.76,76.57,16.34,16.34,0,0,0,76.44,60.25Z"/><path class="cls-2" d="M76.44,82.36a6,6,0,1,1,6-6A6,6,0,0,1,76.44,82.36Zm0-10.51a4.51,4.51,0,1,0,4.5,4.5A4.51,4.51,0,0,0,76.44,71.85Z"/><path class="cls-2" d="M87.57,90.26a.75.75,0,0,1-.71-.5,11.08,11.08,0,0,0-20.85,0,.75.75,0,1,1-1.41-.51,12.58,12.58,0,0,1,23.67,0,.75.75,0,0,1-.45,1A.74.74,0,0,1,87.57,90.26Z"/><path class="cls-1" d="M76.44,94.39A17.82,17.82,0,1,1,94.26,76.57,17.84,17.84,0,0,1,76.44,94.39Zm0-34.14A16.32,16.32,0,1,0,92.76,76.57,16.34,16.34,0,0,0,76.44,60.25Z"/><path class="cls-1" d="M17.82,94.39A17.82,17.82,0,1,1,35.64,76.57,17.84,17.84,0,0,1,17.82,94.39Zm0-34.14A16.32,16.32,0,1,0,34.14,76.57,16.34,16.34,0,0,0,17.82,60.25Z"/><path class="cls-2" d="M17.82,82.36a6,6,0,1,1,6-6A6,6,0,0,1,17.82,82.36Zm0-10.51a4.51,4.51,0,1,0,4.5,4.5A4.51,4.51,0,0,0,17.82,71.85Z"/><path class="cls-2" d="M29,90.26a.75.75,0,0,1-.7-.5,11.08,11.08,0,0,0-20.85,0A.75.75,0,0,1,6,89.25a12.59,12.59,0,0,1,23.68,0,.75.75,0,0,1-.45,1A.8.8,0,0,1,29,90.26Z"/><path class="cls-1" d="M17.82,94.39A17.82,17.82,0,1,1,35.64,76.57,17.84,17.84,0,0,1,17.82,94.39Zm0-34.14A16.32,16.32,0,1,0,34.14,76.57,16.34,16.34,0,0,0,17.82,60.25Z"/><path class="cls-1" d="M46.54,35.64A17.82,17.82,0,1,1,64.36,17.82,17.84,17.84,0,0,1,46.54,35.64Zm0-34.14A16.32,16.32,0,1,0,62.86,17.82,16.34,16.34,0,0,0,46.54,1.5Z"/><path class="cls-2" d="M46.54,23.61a6,6,0,1,1,6-6A6,6,0,0,1,46.54,23.61Zm0-10.51A4.51,4.51,0,1,0,51,17.6,4.51,4.51,0,0,0,46.54,13.1Z"/><path class="cls-2" d="M57.67,31.51A.75.75,0,0,1,57,31a11.08,11.08,0,0,0-20.85,0,.75.75,0,1,1-1.41-.51,12.59,12.59,0,0,1,23.68,0,.75.75,0,0,1-.46,1A.74.74,0,0,1,57.67,31.51Z"/><path class="cls-1" d="M46.54,35.64A17.82,17.82,0,1,1,64.36,17.82,17.84,17.84,0,0,1,46.54,35.64Zm0-34.14A16.32,16.32,0,1,0,62.86,17.82,16.34,16.34,0,0,0,46.54,1.5Z"/><path class="cls-2" d="M56.42,64a.73.73,0,0,1-.53-.22L46,53.93a.75.75,0,0,1,1.06-1.06L57,62.75a.75.75,0,0,1,0,1.06A.74.74,0,0,1,56.42,64Z"/><path class="cls-2" d="M36.66,64a.74.74,0,0,1-.53-.22.75.75,0,0,1,0-1.06l9.66-9.66V41.17a.75.75,0,0,1,1.5,0V53.71l-10.1,10.1A.74.74,0,0,1,36.66,64Z"/></svg>
